X:54
T:Oak Stick. HSJJ.056
M:6/8
L:1/8
Q:3/8=120
S:HSJ Jackson,Wyresdale,Lancs.1823
R:.Jig
O:England
A:Lancashire
H:1823
Z:vmp.Chris Partington.
K:D
a/g/|f2d ded|c2A ABA|efee2f|g3a2g|!
f2d ded|c2A ABA|Bcd edc|d3d2:|!
|:a/g/|f2d ded|g2ab2g|f2d ded|g3a3|!
b2g gag|a2f fgf efee2f|g3″^DC”a2:|

